www/assets/icons/sports_football.svg

<svg width="24" height="24" viewBox="0 0 24 24" xmlns="http://www.w3.org/2000/svg" fill='currentColor'><path d="M3.02 15.6199C2.94 18.0399 3.34 19.9599 3.69 20.3099C4.04 20.6599 5.97 21.0699 8.38 20.9799L3.02 15.6199Z"/><path d="M13.08 3.27992C10.75 3.69992 8.29 4.61992 6.46 6.45992C4.63 8.29992 3.7 10.7499 3.28 13.0799L10.91 20.7099C13.25 20.2999 15.7 19.3699 17.53 17.5299C19.36 15.6899 20.29 13.2399 20.71 10.9099L13.08 3.27992ZM9.9 15.4999L8.5 14.0999L14.1 8.49992L15.5 9.89992L9.9 15.4999Z"/><path d="M20.98 8.37992C21.06 5.95992 20.66 4.03992 20.31 3.68992C19.96 3.33992 18.03 2.92992 15.62 3.01992L20.98 8.37992Z"/></svg>

<svg xmlns="http://www.w3.org/2000/svg" width="24" height="24" viewBox="0 0 24 24" fill='currentColor'><path d="M3.02 15.62c-.08 2.42.32 4.34.67 4.69s2.28.76 4.69.67zM13.08 3.28c-2.33.42-4.79 1.34-6.62 3.18s-2.76 4.29-3.18 6.62l7.63 7.63c2.34-.41 4.79-1.34 6.62-3.18s2.76-4.29 3.18-6.62zM9.9 15.5l-1.4-1.4 5.6-5.6 1.4 1.4zm11.08-7.12c.08-2.42-.32-4.34-.67-4.69s-2.28-.76-4.69-.67z"/></svg>
